public/editor-src/editor/icons/editor/woo-stock.svg

<svg id="nc-woo-stock" viewBox="0 0 16 16">
    <g stroke="none" stroke-width="1" fill-rule="evenodd">
    <path
        d="M15.0000115,1 L1,1 C0.447724207,1 0,1.44777922 0,2.00004334 L0,4.00003809 L16,4.00003809 L16,2.00004334 C16,1.44777922 15.5522942,1 15.0000115,1 Z M1.00000689,14.000306 C1.00000689,14.5522943 1.44763918,15 1.99984832,15 L14.0001701,15 C14.5523608,15 15.0000069,14.5522943 15.0000069,14.000306 L15.0000069,5.00004465 L1.00000689,5.00004465 L1.00000689,14.000306 Z M6.49999195,7.00000263 L9.49999195,7.00000263 C10.0522838,7.00000263 10.5000264,7.44778185 10.5000264,8.00000263 C10.5000264,8.55229169 10.0523022,9.00005253 9.49999195,9.00005253 L6.49999195,9.00005253 C5.94771615,9.00005253 5.49999195,8.55231007 5.49999195,8.00000263 C5.49999195,7.44778185 5.94771617,7.00000263 6.49999195,7.00000263 Z"
        fill="currentColor"
        fill-rule="nonzero"
    ></path>
    </g>
</svg>

<svg viewBox="0 0 16 16"><path fill="currentColor" fill-rule="nonzero" d="M15 1H1a1 1 0 0 0-1 1v2h16V2a1 1 0 0 0-1-1ZM1 14a1 1 0 0 0 1 1h12a1 1 0 0 0 1-1V5H1v9Zm5.5-7h3a1 1 0 0 1 0 2h-3a1 1 0 0 1 0-2Z"/></svg>
